material/.icons/material/file-replace.svg

<svg xmlns="http://www.w3.org/2000/svg" viewBox="0 0 24 24"><path d="M14 12h5.5L14 6.5V12M8 5h7l6 6v10a2 2 0 01-2 2H8a2 2 0 01-2-2v-3h5v2l4-3-4-3v2H6V7a2 2 0 012-2m5.5-2H4v13h2v2H4a2 2 0 01-2-2V3a2 2 0 012-2h7.5l2 2z"/></svg>

<?xml version="1.0" encoding="UTF-8"?><!DOCTYPE svg PUBLIC "-//W3C//DTD SVG 1.1//EN" "http://www.w3.org/Graphics/SVG/1.1/DTD/svg11.dtd"><svg xmlns="http://www.w3.org/2000/svg" xmlns:xlink="http://www.w3.org/1999/xlink" version="1.1" id="mdi-file-replace" width="24" height="24" viewBox="0 0 24 24"><path d="M14,12H19.5L14,6.5V12M8,5H15L21,11V21A2,2 0 0,1 19,23H8C6.89,23 6,22.1 6,21V18H11V20L15,17L11,14V16H6V7A2,2 0 0,1 8,5M13.5,3H4V16H6V18H4A2,2 0 0,1 2,16V3A2,2 0 0,1 4,1H11.5L13.5,3Z" /></svg>
